**kern	**text	**kern	**text	**kern	**text	**kern	**text	**kern	**text
*staff5	*staff5	*staff4	*staff4	*staff3	*staff3	*staff2	*staff2	*staff1	*staff1
*Iorg	*	*Iorg	*	*Ivox	*	*Ivox	*	*Ivox	*
*I"Basso	*	*I"Tenore	*	*I"Alto	*	*I"Soprano II	*	*I"Soprano I	*
*clefF4	*	*clefGv2	*	*clefGv2	*	*clefG2	*	*clefG2	*
*k[b-]	*	*k[b-]	*	*k[b-]	*	*k[b-]	*	*k[b-]	*
*met(c|)	*	*met(c|)	*	*met(c|)	*	*met(c|)	*	*met(c|)	*
*M2/2	*	*M2/2	*	*M2/2	*	*M2/2	*	*M2/2	*
=1-	=1-	=1-	=1-	=1-	=1-	=1-	=1-	=1-	=1-
[1G	Vi-	[1B-	Vi-	[1d	Vi-	1r	.	[1g	Vi-
=2	=2	=2	=2	=2	=2	=2	=2	=2	=2
2G\]	.	2B-\]	.	2d\]	.	1r	.	2g/]	.
2G\	-ne-	2B-\	-ne-	2d\	-ne-	.	.	2g/	-ne-
=3	=3	=3	=3	=3	=3	=3	=3	=3	=3
1G	-a	1B-	-a	1d	-a	1r	.	1g	-a
=4	=4	=4	=4	=4	=4	=4	=4	=4	=4
1G	me-	1B-	me-	1d	me-	1r	.	1b-	me-
=5	=5	=5	=5	=5	=5	=5	=5	=5	=5
2F\	-a	2c\	-a	2f\	-a	1r	.	1a	-a
2D\	e-	2d\	e-	2f\	e-	.	.	.	.
=6	=6	=6	=6	=6	=6	=6	=6	=6	=6
2.G\	-le-	1B-	-le-	4e\	-le-	1r	.	2g/	e-
.	.	.	.	4d\	.	.	.	.	.
.	.	.	.	[2d\	.	.	.	[2b-\	-le-
4F\	-cta,	.	.	.	.	.	.	.	.
=7	=7	=7	=7	=7	=7	=7	=7	=7	=7
1E-	e-	1G	.	4d\]	.	1r	.	4b-\]	.
.	.	.	.	8c\L	.	.	.	4a/	.
.	.	.	.	8B-\J	.	.	.	.	.
.	.	.	.	2c\	.	.	.	[2g/	.
=8	=8	=8	=8	=8	=8	=8	=8	=8	=8
1D	-le-	1A	-cta,	1d	-cta,	1r	.	2g/]	.
.	.	.	.	.	.	.	.	2f#/	.
=9	=9	=9	=9	=9	=9	=9	=9	=9	=9
1G	-cta,	1B-	e-	1d	e-	1r	.	1g	-cta,
=10	=10	=10	=10	=10	=10	=10	=10	=10	=10
1F	e-	1c	-go	1f	-go	1r	.	1a	e-
=11	=11	=11	=11	=11	=11	=11	=11	=11	=11
!!linebreak:original
1BB-	-go	1d	te	1f	te	1r	.	1b-	-go
=12	=12	=12	=12	=12	=12	=12	=12	=12	=12
2C/	te	1c	plan-	1e-	plan-	1r	.	2g/	te
2C/	plan-	.	.	.	.	.	.	2g/	plan-
=13	=13	=13	=13	=13	=13	=13	=13	=13	=13
[1D	-ta-	[1A	-ta-	[1d	-ta-	1r	.	2g/	-ta-
.	.	.	.	.	.	.	.	4f#/	.
.	.	.	.	.	.	.	.	4e/	.
=14	=14	=14	=14	=14	=14	=14	=14	=14	=14
1D]	.	1A]	.	1d]	.	1r	.	1f#i	.
=15	=15	=15	=15	=15	=15	=15	=15	=15	=15
[1GG	-vi:	[1B-	-vi:	[1d	-vi:	1r	.	[1g	-vi:
=16	=16	=16	=16	=16	=16	=16	=16	=16	=16
1GG]	.	1B-]	.	1d]	.	1r	.	1g]	.
=17||	=17||	=17||	=17||	=17||	=17||	=17||	=17||	=17||	=17||
1r	.	1r	.	[1G	Quo-	1r	.	1r	.
=18	=18	=18	=18	=18	=18	=18	=18	=18	=18
1r	.	1r	.	2G/]	.	1r	.	1r	.
.	.	.	.	2A/	-mo-	.	.	.	.
=19	=19	=19	=19	=19	=19	=19	=19	=19	=19
[1GG	Quo-	1r	.	2B-\	-do	1r	.	1r	.
.	.	.	.	2G/	con-	.	.	.	.
=20	=20	=20	=20	=20	=20	=20	=20	=20	=20
2GG/]	.	1r	.	2B-\	-ver-	1r	.	1r	.
2AA/	-mo-	.	.	2c\	-sa	.	.	.	.
=21	=21	=21	=21	=21	=21	=21	=21	=21	=21
2BB-/	-do	[1D	Quo-	[1d	es	1r	.	1r	.
2GG/	con-	.	.	.	.	.	.	.	.
=22	=22	=22	=22	=22	=22	=22	=22	=22	=22
!!pagebreak:original
2BB-/	-ver-	2D/]	.	2d\]	.	1r	.	1r	.
2C/	-sa	2E/	-mo-	4c\	.	.	.	.	.
.	.	.	.	4B-\	.	.	.	.	.
=23	=23	=23	=23	=23	=23	=23	=23	=23	=23
[1D	.	2F/	-do	1A	.	1r	.	[1a	Quo-
.	.	2D/	con-	.	.	.	.	.	.
=24	=24	=24	=24	=24	=24	=24	=24	=24	=24
1D]	.	2F/	-ver-	1r	.	1r	.	2a/]	.
.	.	2G/	-sa	.	.	.	.	2g/	-mo-
=25	=25	=25	=25	=25	=25	=25	=25	=25	=25
1D	es	1A	es	[1d	in	1r	.	2f/	-do
.	.	.	.	.	.	.	.	2d/	con-
=26	=26	=26	=26	=26	=26	=26	=26	=26	=26
1r	.	1r	.	2d\]	.	1r	.	2f/	-ver-
.	.	.	.	2c\	a-	.	.	2e/	-sa
=27	=27	=27	=27	=27	=27	=27	=27	=27	=27
1r	.	1r	.	2B-\	-ma-	1r	.	2d/	es
.	.	.	.	2G/	-ri-	.	.	[2g/	in
=28	=28	=28	=28	=28	=28	=28	=28	=28	=28
1r	.	1r	.	2B-\	-tu-	1r	.	2g/]	.
.	.	.	.	2A/	-di-	.	.	2a/	a-
=29	=29	=29	=29	=29	=29	=29	=29	=29	=29
[1GG	in	[1d	in	2G/	-nem,	1r	.	2b-\	-ma-
.	.	.	.	[2B-\	in	.	.	2g/	-ri-
=30	=30	=30	=30	=30	=30	=30	=30	=30	=30
2GG/]	.	2d\]	.	2B-\]	.	1r	.	2b-\	-tu-
2AA/	a-	2c\	a-	2c\	a-	.	.	[2a/	.
=31	=31	=31	=31	=31	=31	=31	=31	=31	=31
2BB-/	-ma-	2B-\	-ma-	2d\	-ma-	1r	.	4a/]	.
.	.	.	.	.	.	.	.	4g/	.
2C/	-ri-	2G/	-ri-	2e-\	-ri-	.	.	[2g/	.
=32	=32	=32	=32	=32	=32	=32	=32	=32	=32
!!linebreak:original
2.D\	-tu-	2B-\	-tu-	2.d\	-tu-	1r	.	2g/]	.
.	.	2A/	-di-	.	.	.	.	2f#/	-di-
4D\	-di-	.	.	4d\	-di-	.	.	.	.
=33	=33	=33	=33	=33	=33	=33	=33	=33	=33
1GG	-nem,	1G	-nem,	1d	-nem,	1r	.	1g	-nem,
=34	=34	=34	=34	=34	=34	=34	=34	=34	=34
2r	.	2r	.	2r	.	1r	.	2r	.
[2D\	ut	[2A/	ut	[2d\	ut	.	.	[2f/	ut
=35	=35	=35	=35	=35	=35	=35	=35	=35	=35
2D\]	.	2A/]	.	2d\]	.	1r	.	2f/]	.
2C/	me	2c\	me	2e\	me	.	.	2g/	me
=36	=36	=36	=36	=36	=36	=36	=36	=36	=36
2F\	cru-	2c\	cru-	2f\	cru-	1r	.	2a/	cru-
2C/	-ci-	2B-\	-ci-	2e\	-ci-	.	.	2g/	-ci-
=37	=37	=37	=37	=37	=37	=37	=37	=37	=37
[1D	-fi-	[1A	-fi-	[1d	-fi-	1r	.	[1f	-fi-
=38	=38	=38	=38	=38	=38	=38	=38	=38	=38
2D\]	.	2A/]	.	2d\]	.	1r	.	2f/]	.
2D\	-ge-	2A/	-ge-	2d\	-ge-	.	.	2f/	-ge-
=39	=39	=39	=39	=39	=39	=39	=39	=39	=39
1AA	-res,	1A	-res,	1c#	-res,	1r	.	1e	-res,
=40	=40	=40	=40	=40	=40	=40	=40	=40	=40
2r	.	2r	.	2r	.	1r	.	2r	.
2D\	et	2A/	et	2d\	et	.	.	2f/	et
=41	=41	=41	=41	=41	=41	=41	=41	=41	=41
1D	Ba-	1A	Ba-	1d	Ba-	1r	.	1f	Ba-
=42	=42	=42	=42	=42	=42	=42	=42	=42	=42
2BB-/	-rab-	2B-\	-rab-	2d\	-rab-	1r	.	2f/	-rab-
[2E-\	-bam	[2B-\	-bam	[2e-\	-bam	.	.	[2g/	-bam
=43	=43	=43	=43	=43	=43	=43	=43	=43	=43
!!linebreak:original
2E-\]	.	2B-\]	.	2e-\]	.	1r	.	2g/]	.
2BB-/	di-	2B-\	di-	2d\	di-	.	.	2f/	di-
=44	=44	=44	=44	=44	=44	=44	=44	=44	=44
1C	-mit-	[1G	-mit-	1c	-mit-	1r	.	1e-	-mit-
=45	=45	=45	=45	=45	=45	=45	=45	=45	=45
[1D	.	2G/]	.	[1A	.	1r	.	[1d	.
.	.	4F#/	.	.	.	.	.	.	.
.	.	4E/	.	.	.	.	.	.	.
=46	=46	=46	=46	=46	=46	=46	=46	=46	=46
2D\]	.	2F#i/	.	2A/]	.	1r	.	2d/]	.
2D\	-te-	2F#/	-te-	2A/	-te-	.	.	2d/	-te-
=47	=47	=47	=47	=47	=47	=47	=47	=47	=47
[1GG	-res?	[1G	-res?	[1Bn	-res?	1r	.	[1d	-res?
=48	=48	=48	=48	=48	=48	=48	=48	=48	=48
1GG]	.	1G]	.	1B]	.	1r	.	1d]	.
=49||	=49||	=49||	=49||	=49||	=49||	=49||	=49||	=49||	=49||
1r	.	1r	.	1d	Se-	1r	.	1a	Se-
=50	=50	=50	=50	=50	=50	=50	=50	=50	=50
1r	.	1r	.	2d\	-pi-	1r	.	2f/	-pi-
.	.	.	.	2e\	-vi	.	.	2g/	-vi
=51	=51	=51	=51	=51	=51	=51	=51	=51	=51
1r	.	1r	.	1f	te,	1d	Se-	1a	te,
=52	=52	=52	=52	=52	=52	=52	=52	=52	=52
1r	.	1r	.	1r	.	2f/	-pi-	2r	.
.	.	.	.	.	.	2g/	-vi	[2dd\	et
=53	=53	=53	=53	=53	=53	=53	=53	=53	=53
1r	.	1r	.	1r	.	1a	te,	2dd\]	.
.	.	.	.	.	.	.	.	[2cc\	la-
=54	=54	=54	=54	=54	=54	=54	=54	=54	=54
!!pagebreak:original
1r	.	1r	.	1g	et	2r	.	2cc\]	.
.	.	.	.	.	.	[2dd\	et	2b-\	-pi-
=55	=55	=55	=55	=55	=55	=55	=55	=55	=55
1r	.	1r	.	1f	la-	2dd\]	.	1a	-des
.	.	.	.	.	.	[2cc\	la-	.	.
=56	=56	=56	=56	=56	=56	=56	=56	=56	=56
1r	.	1r	.	1e-	-pi-	2cc\]	.	1g	e-
.	.	.	.	.	.	[2b-\	-pi-	.	.
=57	=57	=57	=57	=57	=57	=57	=57	=57	=57
1r	.	1r	.	1d	-des	2b-\]	.	1f	-le-
.	.	.	.	.	.	[2a/	-des	.	.
=58	=58	=58	=58	=58	=58	=58	=58	=58	=58
1r	.	1r	.	1c	e-	2a/]	.	1e	-gi
.	.	.	.	.	.	2g/	e-	.	.
=59	=59	=59	=59	=59	=59	=59	=59	=59	=59
1r	.	1r	.	2B-\	-le-	2.b-\	-le-	2.d/	ex
.	.	.	.	2G/	-gi	.	.	.	.
.	.	.	.	.	.	8a/L	.	4e/	.
.	.	.	.	.	.	8g/J	.	.	.
=60	=60	=60	=60	=60	=60	=60	=60	=60	=60
1r	.	1r	.	[1d	ex	2a/	.	2f#/	.
.	.	.	.	.	.	2b-\	-gi	[2g/	.
=61	=61	=61	=61	=61	=61	=61	=61	=61	=61
1r	.	1r	.	1d]	.	1a	ex	4g/]	.
.	.	.	.	.	.	.	.	8f#/L	.
.	.	.	.	.	.	.	.	8e/J	.
.	.	.	.	.	.	.	.	2f#/	.
=62	=62	=62	=62	=62	=62	=62	=62	=62	=62
1r	.	1r	.	1G	te,	1g	te,	1g	te,
=63	=63	=63	=63	=63	=63	=63	=63	=63	=63
1r	.	1r	.	2r	.	2r	.	2r	.
.	.	.	.	[2d\	et	[2a/	et	[2f#/	et
=64	=64	=64	=64	=64	=64	=64	=64	=64	=64
1r	.	1r	.	2d\]	.	2a/]	.	2f#/]	.
.	.	.	.	2g\	ae-	2b-\	ae-	2g/	ae-
=65	=65	=65	=65	=65	=65	=65	=65	=65	=65
!!linebreak:original
1r	.	1r	.	2f\	-di-	2cc\	-di-	2a/	-di-
.	.	.	.	2B-\	-fi-	2dd\	-fi-	2b-\	-fi-
=66	=66	=66	=66	=66	=66	=66	=66	=66	=66
1r	.	1r	.	[1f	-ca-	1cc	-ca-	2.a/	-ca-
.	.	.	.	.	.	.	.	4b-\	.
=67	=67	=67	=67	=67	=67	=67	=67	=67	=67
1r	.	1r	.	2f\]	.	2a/	-vi	2cc\	.
.	.	.	.	2d\	-vi	[2b-\	tur-	2f/	-vi
=68	=68	=68	=68	=68	=68	=68	=68	=68	=68
1r	.	1r	.	1e-	tur-	2b-\]	.	1g	tur-
.	.	.	.	.	.	4a/	.	.	.
.	.	.	.	.	.	4g/	.	.	.
=69	=69	=69	=69	=69	=69	=69	=69	=69	=69
1r	.	1r	.	[1d	-rim.	[1f#	-rim.	[1a	-rim.
=70	=70	=70	=70	=70	=70	=70	=70	=70	=70
1r	.	1r	.	1d]	.	1f#]	.	1a]	.
=71||	=71||	=71||	=71||	=71||	=71||	=71||	=71||	=71||	=71||
1r	.	1r	.	[1G	Quo-	1r	.	1r	.
=72	=72	=72	=72	=72	=72	=72	=72	=72	=72
1r	.	1r	.	2G/]	.	1r	.	1r	.
.	.	.	.	2A/	-mo-	.	.	.	.
=73	=73	=73	=73	=73	=73	=73	=73	=73	=73
[1GG	Quo-	1r	.	2B-\	-do	1r	.	1r	.
.	.	.	.	2G/	con-	.	.	.	.
=74	=74	=74	=74	=74	=74	=74	=74	=74	=74
2GG/]	.	1r	.	2B-\	-ver-	1r	.	1r	.
2AA/	-mo-	.	.	2c\	-sa	.	.	.	.
=75	=75	=75	=75	=75	=75	=75	=75	=75	=75
2BB-/	-do	[1D	Quo-	[1d	es	1r	.	1r	.
2GG/	con-	.	.	.	.	.	.	.	.
=76	=76	=76	=76	=76	=76	=76	=76	=76	=76
!!linebreak:original
2BB-/	-ver-	2D/]	.	2d\]	.	1r	.	1r	.
2C/	-sa	2E/	-mo-	4c\	.	.	.	.	.
.	.	.	.	4B-\	.	.	.	.	.
=77	=77	=77	=77	=77	=77	=77	=77	=77	=77
[1D	.	2F/	-do	1A	.	1r	.	[1a	Quo-
.	.	2D/	con-	.	.	.	.	.	.
=78	=78	=78	=78	=78	=78	=78	=78	=78	=78
1D]	.	2F/	-ver-	1r	.	1r	.	2a/]	.
.	.	2G/	-sa	.	.	.	.	2g/	-mo-
=79	=79	=79	=79	=79	=79	=79	=79	=79	=79
1D	es	1A	es	[1d	in	1r	.	2f/	-do
.	.	.	.	.	.	.	.	2d/	con-
=80	=80	=80	=80	=80	=80	=80	=80	=80	=80
1r	.	1r	.	2d\]	.	1r	.	2f/	-ver-
.	.	.	.	2c\	a-	.	.	2e/	-sa
=81	=81	=81	=81	=81	=81	=81	=81	=81	=81
1r	.	1r	.	2B-\	-ma-	1r	.	2d/	es
.	.	.	.	2G/	-ri-	.	.	[2g/	in
=82	=82	=82	=82	=82	=82	=82	=82	=82	=82
1r	.	1r	.	2B-\	-tu-	1r	.	2g/]	.
.	.	.	.	2A/	-di-	.	.	2a/	a-
=83	=83	=83	=83	=83	=83	=83	=83	=83	=83
[1GG	in	[1d	in	2G/	-nem,	1r	.	2b-\	-ma-
.	.	.	.	[2B-\	in	.	.	2g/	-ri-
=84	=84	=84	=84	=84	=84	=84	=84	=84	=84
2GG/]	.	2d\]	.	2B-\]	.	1r	.	2b-\	-tu-
2AA/	a-	2c\	a-	2c\	a-	.	.	[2a/	.
=85	=85	=85	=85	=85	=85	=85	=85	=85	=85
2BB-/	-ma-	2B-\	-ma-	2d\	-ma-	1r	.	4a/]	.
.	.	.	.	.	.	.	.	4g/	.
2C/	-ri-	2G/	-ri-	2e-\	-ri-	.	.	[2g/	.
=86	=86	=86	=86	=86	=86	=86	=86	=86	=86
!!pagebreak:original
2.D\	-tu-	2B-\	-tu-	2.d\	-tu-	1r	.	2g/]	.
.	.	2A/	-di-	.	.	.	.	2f#/	-di-
4D\	-di-	.	.	4d\	-di-	.	.	.	.
=87	=87	=87	=87	=87	=87	=87	=87	=87	=87
1GG	-nem,	1G	-nem,	1d	-nem,	1r	.	1g	-nem,
=88	=88	=88	=88	=88	=88	=88	=88	=88	=88
2r	.	2r	.	2r	.	1r	.	2r	.
[2D\	ut	[2A/	ut	[2d\	ut	.	.	[2f/	ut
=89	=89	=89	=89	=89	=89	=89	=89	=89	=89
2D\]	.	2A/]	.	2d\]	.	1r	.	2f/]	.
2C/	me	2c\	me	2e\	me	.	.	2g/	me
=90	=90	=90	=90	=90	=90	=90	=90	=90	=90
2F\	cru-	2c\	cru-	2f\	cru-	1r	.	2a/	cru-
2C/	-ci-	2B-\	-ci-	2e\	-ci-	.	.	2g/	-ci-
=91	=91	=91	=91	=91	=91	=91	=91	=91	=91
[1D	-fi-	[1A	-fi-	[1d	-fi-	1r	.	[1f	-fi-
=92	=92	=92	=92	=92	=92	=92	=92	=92	=92
2D\]	.	2A/]	.	2d\]	.	1r	.	2f/]	.
2D\	-ge-	2A/	-ge-	2d\	-ge-	.	.	2f/	-ge-
=93	=93	=93	=93	=93	=93	=93	=93	=93	=93
1AA	-res,	1A	-res,	1c#	-res,	1r	.	1e	-res,
=94	=94	=94	=94	=94	=94	=94	=94	=94	=94
2r	.	2r	.	2r	.	1r	.	2r	.
2D\	et	2A/	et	2d\	et	.	.	2f/	et
=95	=95	=95	=95	=95	=95	=95	=95	=95	=95
1D	Ba-	1A	Ba-	1d	Ba-	1r	.	1f	Ba-
=96	=96	=96	=96	=96	=96	=96	=96	=96	=96
2BB-/	-rab-	2B-\	-rab-	2d\	-rab-	1r	.	2f/	-rab-
[2E-\	-bam	[2B-\	-bam	[2e-\	-bam	.	.	[2g/	-bam
=97	=97	=97	=97	=97	=97	=97	=97	=97	=97
!!linebreak:original
2E-\]	.	2B-\]	.	2e-\]	.	1r	.	2g/]	.
2BB-/	di-	2B-\	di-	2d\	di-	.	.	2f/	di-
=98	=98	=98	=98	=98	=98	=98	=98	=98	=98
1C	-mit-	[1G	-mit-	1c	-mit-	1r	.	1e-	-mit-
=99	=99	=99	=99	=99	=99	=99	=99	=99	=99
[1D	.	2G/]	.	[1A	.	1r	.	[1d	.
.	.	4F#/	.	.	.	.	.	.	.
.	.	4E/	.	.	.	.	.	.	.
=100	=100	=100	=100	=100	=100	=100	=100	=100	=100
2D\]	.	2F#i/	.	2A/]	.	1r	.	2d/]	.
2D\	-te-	2F#/	-te-	2A/	-te-	.	.	2d/	-te-
=101	=101	=101	=101	=101	=101	=101	=101	=101	=101
[1GG	-res?	[1G	-res?	[1Bn	-res?	1r	.	[1d	-res?
=102	=102	=102	=102	=102	=102	=102	=102	=102	=102
1GG]	.	1G]	.	1B]	.	1r	.	1d]	.
==	==	==	==	==	==	==	==	==	==
*-	*-	*-	*-	*-	*-	*-	*-	*-	*-
!!!OTL: Vinea mea 
!!!COM: Ingegneri, Marc' Antonio
!!!CDT: ca. 1535/36-1592-07-01
!!!TXO: Latin
!!!ODT: 
!!!ARL: Klasztor OO. Paulinów na Jasnej Górze
!!!voices:	5
!!title: @{OTL}, @{GTL}, ed. @{ENC}
!!!pag:
!!!GTL: Responsoria in Hebdomada majore
!!!EFL: 
!!!YEM: Creative Commons CC/BY/NC/SA 4.0
!!!ENC: Marcin Konik
!!!END: 2015-0m-dd
!!!EED: Marcin Konik
!!!EEV: 
!!!ONB: Encoded in vim by Marcin Konik
!!!CharacterEncoding: utf-8
!!!RDF**kern: l=long note in original notation
!!!RDF**kern: i=editorial accidental
!!muse2ps: z14jc180F
